X:653
T: IM HIMMEL IM HIMMEL IST FREUDE SO VIEL
N: E2034
O: Europa, Mitteleuropa, Deutschland
R: geistlich, Wallfahrts - Lied
M: 3/4
L: 1/8
K: C
G,2 | C3B,C2 | D3CD2 | E2E2FE | D4
EG | GFF2F2 | E3DC2 | EDC2B,2 | C4
EG | GFF2F2 | E3DC2 | EDC2B,2 | C4

@@@ Tune index: 5337
